material/.icons/material/flask-empty-remove.svg

<svg xmlns="http://www.w3.org/2000/svg" viewBox="0 0 24 24"><path d="M15.46 15.88l1.42-1.42L19 16.59l2.12-2.12 1.41 1.41L20.41 18l2.13 2.12-1.42 1.42L19 19.41l-2.12 2.12-1.41-1.41L17.59 18l-2.13-2.12M6 22c-1.66 0-3-1.34-3-3 0-.6.18-1.16.5-1.64L9 7.81V6c-.55 0-1-.45-1-1V4c0-1.1.9-2 2-2h4a2 2 0 012 2v1c0 .55-.45 1-1 1v1.81l2.5 4.37C14.92 12.84 13 15.2 13 18c0 1.54.58 2.94 1.53 4H6z"/></svg>

<?xml version="1.0" encoding="UTF-8"?><!DOCTYPE svg PUBLIC "-//W3C//DTD SVG 1.1//EN" "http://www.w3.org/Graphics/SVG/1.1/DTD/svg11.dtd"><svg xmlns="http://www.w3.org/2000/svg" xmlns:xlink="http://www.w3.org/1999/xlink" version="1.1" id="mdi-flask-empty-remove" width="24" height="24" viewBox="0 0 24 24"><path d="M15.46 15.88L16.88 14.46L19 16.59L21.12 14.47L22.53 15.88L20.41 18L22.54 20.12L21.12 21.54L19 19.41L16.88 21.53L15.47 20.12L17.59 18L15.46 15.88M6 22C4.34 22 3 20.66 3 19C3 18.4 3.18 17.84 3.5 17.36L9 7.81V6C8.45 6 8 5.55 8 5V4C8 2.9 8.9 2 10 2H14C15.11 2 16 2.9 16 4V5C16 5.55 15.55 6 15 6V7.81L17.5 12.18C14.92 12.84 13 15.2 13 18C13 19.54 13.58 20.94 14.53 22H6Z" /></svg>
